X:37
T:Au matin dans la clart - I15
C:P. Dalay
M:2/4
L:1/8
K:D
z2 DE|FG EF|D2 AG|AB GA|A2 DE|FG EF|D2 AG|AB GA|
A2 zD|AA GB|A4|A2 GF|E2 DF|E4|A2 GF|E2 FE|D4||
